X:302
T: ES WAR EIN ALTER KOENIG EIN KOENIG AN DEM RHEIN
N: B0353
O: Europa, Mitteleuropa, Deutschland
R: Trink - Lied, Sage
M: 4/4
L: 1/8
K: F
C2 | F2F2F2A2 | c4F2
F2 | B2B2d2d2 | c4z2
A2 | B2B2B2G2 | A4A2
G2 | F2F2E2E2 | D4z2
F2 | d2d2d2d2 | c4A2
F2 | d2cBA2^G2 | A4z2
A2 | A2A2A2A2 | B4A2
_A2 | G2G2G2C2 | F4z2

